!!!!SEGMENT: Opi2001-Sub_tuum_presidium.krn
!!!id: Opi2001
!!!AGN: Motet
!!!voices: 4
!!!COM: Benedictus de Opitiis
!!!OTL: Sub tuum presidium
**kern	**kern	**kern	**kern
*part4	*part3	*part2	*part1
*staff4	*staff3	*staff2	*staff1
*I"Bassus	*I"Tenor	*I"Altus	*I"Superius
*I'B	*I'T	*I'A	*I'S
*clefF4	*clefGv2	*clefGv2	*clefG2
*k[]	*k[]	*k[]	*k[]
*M2/1	*M2/1	*M2/1	*M2/1
*met(C|)	*met(C|)	*met(C|)	*met(C|)
!!section: Prima pars: Sub tuum presidium
!!!OMD: Prima pars: Sub tuum presidium
=1	=1	=1	=1
1.C	0r	0r	0r
2C	.	.	.
=2	=2	=2	=2
1E	0r	0r	0r
1F	.	.	.
=3	=3	=3	=3
1.G	1.G	0r	0r
2G	2G	.	.
=4	=4	=4	=4
1G	1B	0r	0r
1E	1c	.	.
=5	=5	=5	=5
1F	1.d	0r	0r
1G	.	.	.
.	2d	.	.
=6	=6	=6	=6
2r	1B	0r	0r
2G	.	.	.
2.A	1c	.	.
4G	.	.	.
=7	=7	=7	=7
2F	2d	0r	0r
2G	2.e	.	.
2.A	.	.	.
.	4d	.	.
.	4c	.	.
4G	4B	.	.
=8	=8	=8	=8
4F	2A	0r	0r
4E	.	.	.
4F	1d	.	.
4D	.	.	.
1E	.	.	.
.	2c	.	.
=9	=9	=9	=9
2D	2d	0r	0r
1G	2B	.	.
.	1A	.	.
2F#i	.	.	.
=10	=10	=10	=10
1G	1G	2.G	1.g
.	.	4A	.
1r	1r	2B	.
.	.	2c	2g
=11	=11	=11	=11
0r	0r	2G	1b
.	.	2g	.
.	.	2f	1cc
.	.	2e	.
=12	=12	=12	=12
0r	0r	4d	1.dd
.	.	4c	.
.	.	4d	.
.	.	4e	.
.	.	2f	.
.	.	[2g	2dd
=13	=13	=13	=13
0r	0r	2g]	1b
.	.	1e	.
.	.	.	1cc
.	.	[2f	.
=14	=14	=14	=14
0r	0r	2f]	2dd
.	.	2g	2.ee
.	.	2e	.
.	.	.	4dd
.	.	[2f	4cc
.	.	.	4b
=15	=15	=15	=15
0r	0r	4f]	2a
.	.	4e	.
.	.	4f	1dd
.	.	4d	.
.	.	1e	.
.	.	.	2cc
=16	=16	=16	=16
0r	0r	2d	2dd
.	.	1g	2b
.	.	.	1a
.	.	2f#i	.
=17	=17	=17	=17
1.G	2r	1g	1g
.	1d	.	.
.	.	1r	1r
2D	2d	.	.
=18	=18	=18	=18
2E	2c	0r	0r
2F	2c	.	.
1G	2B	.	.
.	4A	.	.
.	4G	.	.
=19	=19	=19	=19
2.D	2.A	0r	0r
4E	4G	.	.
4F	4A	.	.
4G	4B	.	.
[2A	[2c	.	.
=20	=20	=20	=20
4A]	4c]	0r	0r
4G	4B	.	.
1G	4A	.	.
.	4G	.	.
.	1A	.	.
2F	.	.	.
=21	=21	=21	=21
1E	2G	0r	0r
.	2c	.	.
2D	4B	.	.
.	4A	.	.
[2E	[2c	.	.
=22	=22	=22	=22
4E]	4c]	0r	0r
4D	4B	.	.
4C	4A	.	.
4BB	4G	.	.
4AA	4F	.	.
4GG	4E	.	.
2AA	4G	.	.
.	4F	.	.
=23	=23	=23	=23
2GG	1G	1g	0dd
2G	.	.	.
2D	2.A	1f	.
2F	.	.	.
.	4B	.	.
=24	=24	=24	=24
2C	1c	1e	1cc
2C	.	.	.
1G	1d	2d	1b
.	.	2g	.
=25	=25	=25	=25
1D	2.d	1f	1a
.	4c	.	.
1GG	4B	[1d	2b
.	4A	.	.
.	2B	.	2g
=26	=26	=26	=26
1D	1A	1d]	2f
.	.	.	2.a
1C	2.c	2.e	.
.	.	.	4g
.	.	.	[2e
.	4B	8dL	.
.	.	8cJ	.
=27	=27	=27	=27
2r	1G	1B	2e]
2G	.	.	4d
.	.	.	4e
2D	2A	[1d	4f
.	.	.	4g
[2F	2D	.	[2a
=28	=28	=28	=28
2F]	2F	2d]	4a]
.	.	.	4g
2E	2G	2c	1g
2D	1A	[1d	.
2D	.	.	2f#i
=29	=29	=29	=29
0GG	0G	1d]	0g
.	.	2r	.
.	.	2G	.
=30	=30	=30	=30
0r	1r	1B	1r
.	1r	1c	2r
.	.	.	2g
=31	=31	=31	=31
1r	1r	1d	1b
1C	2r	1c	1cc
.	2G	.	.
=32	=32	=32	=32
1G	1B	4B	1dd
.	.	4G	.
.	.	1g	.
1A	1c	.	1cc
.	.	2f#i	.
=33	=33	=33	=33
1G	1d	2.g	2b
.	.	.	2b
.	.	4f	.
2A	2c	4e	1a
.	.	4d	.
2F	2d	[2d	.
=34	=34	=34	=34
2G	1e	2d]	1r
2A	.	2c#i	.
1D	1d	1d	1a
=35	=35	=35	=35
0r	0r	1e	1g
.	.	1d	1f
=36	=36	=36	=36
0r	0r	2B	2d
.	.	2.c	2.e
.	.	4B	4d
.	.	4A	[2g
.	.	4G	.
=37	=37	=37	=37
0r	0r	1A	2g]
.	.	.	2f#i
.	.	[1G	[1g
=38	=38	=38	=38
1C	1e	1G]	1g]
1G	1d	1r	1r
=39	=39	=39	=39
2.A	1c	0r	0r
4G	.	.	.
2F	2A	.	.
[2G	[2B	.	.
=40	=40	=40	=40
4G]	4B]	1r	1r
4F	4A	.	.
4E	1d	.	.
4D	.	.	.
1E	.	1G	1g
.	2c#i	.	.
=41	=41	=41	=41
1D	1d	1.A	1.f
2r	1d	.	.
2D	.	2B	2g
=42	=42	=42	=42
1AA	1c	1c	1a
2BB	1B	[1d	2d
2C	.	.	[2g
=43	=43	=43	=43
1D	1A	0d]	2g]
.	.	.	2f
2GG	2B	.	2g
[2D	[2A	.	2a
=44	=44	=44	=44
4D]	2A]	2r	2.f
4C	.	.	.
2BB	2B	2d	.
.	.	.	4g
2AA	2c	1e	2a
[2GG	2B	.	[2b
=45	=45	=45	=45
2GG]	1G	2d	2b]
1C	.	2c	2g
.	1c	1e	2a
2AA	.	.	2cc
=46	=46	=46	=46
1D	2r	1d	2b
.	2F	.	2.a
1E	1G	1c	.
.	.	.	4g
.	.	.	[2g
=47	=47	=47	=47
0D	0A	0d	2g]
.	.	.	4f#i
.	.	.	4e
.	.	.	1f#i
=48	=48	=48	=48
1.E	0G	2B	1g
.	.	2c	.
.	.	2B	1r
2C	.	[2e	.
=49	=49	=49	=49
1D	1r	2e]	1.a
.	.	1d	.
1AA	1A	.	.
.	.	2c	[2f
=50	=50	=50	=50
1D	1F	1d	2f]
.	.	.	1a
1r	1A	1r	.
.	.	.	[2cc
=51	=51	=51	=51
0r	1c	0r	4cc]
.	.	.	4b
.	.	.	1a
.	1B	.	.
.	.	.	2g
=52	=52	=52	=52
0r	1A	0r	2f
.	.	.	4e
.	.	.	4d
.	1c	.	1e
=53	=53	=53	=53
1r	0d	2r	1d
.	.	1d	.
1D	.	.	1r
.	.	[2B	.
=54	=54	=54	=54
1BB	0r	2B]	0r
.	.	1d	.
1D	.	.	.
.	.	[2f	.
=55	=55	=55	=55
1F	0r	4f]	0r
.	.	4e	.
.	.	1d	.
1E	.	.	.
.	.	2c	.
=56	=56	=56	=56
1D	0r	2B	0r
.	.	4A	.
.	.	4G	.
1F	.	1A	.
=57	=57	=57	=57
1G	1r	1G	0r
2A	2r	1r	.
2G	[2e	.	.
=58	=58	=58	=58
2E	2e]	0r	0r
2F	2d	.	.
2G	2B	.	.
2A	2c	.	.
=59	=59	=59	=59
2F	2d	0r	0r
1G	2.e	.	.
.	4d	.	.
2F	[2d	.	.
=60	=60	=60	=60
1E	2d]	1r	0r
.	2c#i	.	.
1D	1d	2r	.
.	.	[2d	.
=61	=61	=61	=61
0r	0r	2d]	2r
.	.	2c	1a
.	.	2A	.
.	.	2B	2g
=62	=62	=62	=62
0r	0r	2c	2e
.	.	2d	2f
.	.	2B	2g
.	.	[2c	[2a
=63	=63	=63	=63
0r	1r	2c]	4a]
.	.	.	4g
.	.	2B	1g
.	1c	1A	.
.	.	.	2f#i
=64	=64	=64	=64
1G	1B	1.G	1.g
2E	1c	.	.
[2F	.	[2A	[2f
=65	=65	=65	=65
2F]	1d	2A]	2f]
2G	.	2B	2d
2D	2d	2A	1f
2F	2c	[2a	.
=66	=66	=66	=66
2G	2B	4a]	2e
.	.	4g	.
2E	2G	1g	2c
1D	1A	.	[1d
.	.	2f#i	.
=67	=67	=67	=67
2BB	1G	4g	2d]
.	.	4f	.
2C	.	4e	1g
.	.	4d	.
1AA	2r	4c	.
.	.	4B	.
.	2A	2c	2f
=68	=68	=68	=68
2GG	2B	2d	2g
2AA	2c	2A	2e
2FF	2A	2c	2f
2GG	2B	2B	[2d
=69	=69	=69	=69
1G	2B	2G	2d]
.	4A	2B	2e
.	4G	.	.
2F	2A	2c	2f
2E	2B	[2e	[2g
=70	=70	=70	=70
1C	1c	4e]	2g]
.	.	4d	.
.	.	2e	4f#i
.	.	.	4e
1D	1A	1d	2f#i
.	.	.	4g
.	.	.	4f#i
=71	=71	=71	=71
0GGl	0Gl	0dl	0gl
==	==	==	==
*-	*-	*-	*-
!!!system-decoration: s1,s2,s3,s4
!!!RDF**kern: i = editorial accidental
!!!RDF**kern: l = terminal long
!!!ENC: Raphaela Herzfeld
!!!END: 2026/6/2
!!!EED: Benjamin Ory
!!!EEV: 2026/07/13
!!!YEC: Copyright 2026 Raphaela Herzfeld, All Rights Reserved
!!!ONB: Translated from MusicXML on 2026/07/13
!!!verovio: header encoded
!!!header-left: Edited by @{ENC} (2026)\n
!!!header-right:
!!!header-center:
!!muse2ps: C^@{COM}^i2I150v90,90,90,120c120z18l2770t130
